X: 1
T: Mira Stables Cook's Delight
C: Muriel A. Johnstone
R: jig
Z: 2012 John Chambers <jc:trillian.mit.edu>
M: 6/8
L: 1/8
K: G
d |\
"G"gGG B>AG | "G"B<dd e>dB | "Em"g>eg e>dB | "Am7"g>eg "D7"a2b |\
"G"gGG B>AG | "Bm"B<dd "Em"e>dB | "C"e>dc "G"d<gB | "D7"AGG "G"G2f ||
"G"g2G "C"c>de | "G"d<gB d<gB | "G"d<gB "Em"B>AG | "Am"edB "D7"A2f |\
"G"g2G "C"c>de | "G"d<gB B>AG | "C"e>dc "G"d<gB | "Am"ABc "D7"def ||
"G"g2G "C"c>de | "G"d<gB d<gB | "Em"b>ag "C"e<ge | "G"dBG "D7"A2B |\
"G"g2G "C"c>de | "G"d<gB "Em"B>AG | "C"e>dc "G"d<gB | "D7"AGG "G"G2d ||
"G"gGG B>AG | "G"B>dd e>dB | "Em"g>eg e>dB | "Am"g>eg "D7"a2b |\
"G"gGG "Em"B>AG | "Bm"B<dd "Em"e>dB | "C"e>dc "G"d<gB | "D7"AGG "G"G2 |]
